svg/600/sharp/egg-fill.svg

<svg xmlns="http://www.w3.org/2000/svg" width="48" height="48" viewBox="0 -960 960 960"><path d="M493.13-242.13h21.13v-51.871h-16.608q-49.855 0-84.753-34.898t-34.898-84.753v-16.608H326.13v21.13q0 69.305 48.848 118.152 48.847 48.848 118.152 48.848Zm-13.267 135.131q-123.081 0-207.972-86.473-84.892-86.474-84.892-212.18 0-78.308 26.631-157.633 26.63-79.324 68.815-143.891 42.184-64.566 94.629-105.195 52.445-40.63 102.791-40.63 51.396 0 103.51 40.63 52.115 40.629 94.24 105.195 42.125 64.567 68.755 143.891 26.631 79.325 26.631 157.633 0 125.706-85.028 212.18-85.029 86.473-208.11 86.473Z"/></svg>

<svg xmlns="http://www.w3.org/2000/svg" width="48" height="48" viewBox="0 -960 960 960"><path d="M493.13-242.13h21.13V-294h-16.61q-49.85 0-84.75-34.9T378-413.65v-16.61h-51.87v21.13q0 69.3 48.85 118.15 48.85 48.85 118.15 48.85ZM479.86-107q-123.08 0-207.97-86.47Q187-279.95 187-405.65q0-78.31 26.63-157.63 26.63-79.33 68.81-143.9 42.19-64.56 94.63-105.19Q429.52-853 479.87-853q51.39 0 103.51 40.63 52.11 40.63 94.23 105.19 42.13 64.57 68.76 143.9Q773-483.96 773-405.65q0 125.7-85.03 212.18Q602.94-107 479.86-107Z"/></svg>
